build/category/DumpOutline.svg

<svg xmlns="http://www.w3.org/2000/svg" fill="none" viewBox="0 0 24 24" focusable="false"><path d="M0 0H24V24H0z" transform="matrix(-1 0 0 1 24 0)"/><path fill="#74767B" fill-rule="evenodd" d="M8.30513 7.29346L6.19252 7.29346C5.44693 7.29346 4.84252 7.89787 4.84252 8.64346L4.84252 13.7601C4.84252 13.7757 4.84278 13.7912 4.8433 13.8066L4.67051 13.8066C4.49812 13.8066 4.33278 13.8751 4.21089 13.997C4.08899 14.1189 4.02051 14.2843 4.02051 14.4566L4.02053 16.9077C4.02055 18.6473 5.43085 20.0576 7.17054 20.0576L16.9322 20.0576C18.6719 20.0576 20.0822 18.6473 20.0822 16.9076L20.0822 14.4566C20.0822 14.0977 19.7912 13.8066 19.4322 13.8066L19.2654 13.8066C19.2743 13.5667 19.2181 13.3183 19.0835 13.0851L18.1927 11.5422C18.6769 10.7302 18.9551 9.78113 18.9551 8.76703C18.9551 5.77022 16.5257 3.34082 13.5289 3.34082C11.0428 3.34082 8.94722 5.0127 8.30513 7.29346ZM17.4066 10.1807L15.8126 7.41975C15.2929 6.51975 13.9939 6.51975 13.4743 7.41975L12.6592 8.83156L12.6592 8.64346C12.6592 7.89787 12.0548 7.29346 11.3092 7.29346L9.67356 7.29346C10.2668 5.74233 11.7692 4.64082 13.5289 4.64082C15.8077 4.64082 17.6551 6.48819 17.6551 8.76703C17.6551 9.26361 17.5674 9.73971 17.4066 10.1807ZM11.3592 11.0832L10.2034 13.0851C10.0687 13.3183 10.0126 13.5667 10.0214 13.8066L6.17416 13.8066C6.15563 13.7993 6.14252 13.7813 6.14252 13.7601L6.14252 8.64346C6.14252 8.61584 6.1649 8.59346 6.19252 8.59346L11.3092 8.59346C11.3368 8.59346 11.3592 8.61584 11.3592 8.64346L11.3592 11.0832ZM5.32051 15.1066L5.32053 16.9076C5.32055 17.9294 6.14882 18.7576 7.17054 18.7576L16.9322 18.7576C17.954 18.7576 18.7822 17.9294 18.7822 16.9076L18.7822 15.1066C14.2931 15.1066 9.80761 15.1066 5.32051 15.1066ZM11.3515 13.8066L11.3474 13.8045C11.3418 13.8012 11.3349 13.7949 11.3292 13.7851C11.3236 13.7753 11.3216 13.7661 11.3215 13.7597C11.3214 13.7552 11.3219 13.7478 11.3292 13.7351L14.6001 8.06975C14.6075 8.05704 14.6136 8.05293 14.6175 8.05077C14.6232 8.04763 14.6321 8.04475 14.6434 8.04475C14.6547 8.04475 14.6637 8.04763 14.6693 8.05077C14.6732 8.05293 14.6794 8.05704 14.6867 8.06975L17.9576 13.7351C17.965 13.7478 17.9654 13.7552 17.9654 13.7597C17.9652 13.7661 17.9633 13.7753 17.9576 13.7851C17.952 13.7949 17.945 13.8012 17.9395 13.8045L17.9354 13.8066L11.3515 13.8066Z"/></svg>

<svg xmlns="http://www.w3.org/2000/svg" fill="none" viewBox="0 0 24 24" focusable="false"><path fill="#74767B" fill-rule="evenodd" d="M8.3 7.29H6.19c-.75 0-1.35.6-1.35 1.35v5.16h-.17c-.18 0-.34.07-.46.19a.62.62 0 0 0-.19.46v2.45a3.15 3.15 0 0 0 3.15 3.15h9.76a3.15 3.15 0 0 0 3.15-3.15v-2.45c0-.36-.29-.65-.65-.65h-.17c.01-.24-.05-.49-.18-.72l-.89-1.54A5.426 5.426 0 1 0 8.3 7.29m9.1 2.89-1.59-2.77c-.52-.9-1.82-.9-2.34 0l-.82 1.42v-.19c0-.75-.6-1.35-1.35-1.35H9.67a4.12 4.12 0 0 1 3.85-2.65 4.123 4.123 0 0 1 3.88 5.54m-6.05.9-1.15 2c-.14.23-.19.48-.18.72H6.17c-.02-.01-.03-.02-.03-.04V8.64c0-.03.02-.05.05-.05h5.11c.03 0 .05.02.05.05zM5.32 15.1v1.8c0 1.02.82 1.85 1.85 1.85h9.76c1.02 0 1.85-.83 1.85-1.85v-1.8zm6.03-1.3h-.01l-.02-.02v-.05l3.28-5.67c0-.01.01-.01.01-.01.01-.01.02-.01.03-.01s.02 0 .02.01c.01 0 .01 0 .02.01l3.27 5.67c.01.01.01.02.01.02 0 .01 0 .02-.01.03 0 .01-.01.02-.02.02z"/></svg>
